build/images/content/icons/icon-8.svg

<svg width="100" height="100" viewBox="0 0 100 100" fill="none" xmlns="http://www.w3.org/2000/svg">
<path d="M74.6484 56.088C73.254 56.094 71.8817 56.4332 70.6484 57.0767V72.0455C71.7958 72.6337 73.0631 72.9571 74.3551 72.9913C75.647 73.0256 76.93 72.7698 78.1076 72.2432C79.2852 71.7167 80.3268 70.933 81.1539 69.9512C81.9811 68.9693 82.5723 67.8148 82.8832 66.5745C83.1941 65.3342 83.2166 64.0404 82.9489 62.7903C82.6812 61.5402 82.1304 60.3663 81.3378 59.357C80.5452 58.3477 79.5315 57.5292 78.3728 56.963C77.2142 56.3967 75.9408 56.0976 74.6484 56.088Z" fill="#F91A2B"/>
<path d="M34.87 76.7129H34.38H34.06C34.06 76.5053 34.06 76.3372 34.06 76.2086C34.06 76.0801 34.06 75.9022 34.01 75.6846L33.77 73.3513C33.47 73.9248 33.18 74.4784 32.91 75.042C32.64 75.6055 32.38 76.1098 32.09 76.7129H31.79C31.51 76.1296 31.23 75.5561 30.94 74.9926C30.65 74.429 30.38 73.9248 30.14 73.47L29.96 74.9926C29.96 75.2595 29.89 75.5561 29.86 75.8923C29.83 76.2284 29.86 76.4954 29.86 76.7129C29.7601 76.7058 29.6599 76.7058 29.56 76.7129H29.42H29.25L29.49 75.1705L29.97 71.7101C30.0763 71.7218 30.1836 71.7218 30.29 71.7101H30.45H30.61C30.88 72.2934 31.16 72.8669 31.45 73.4502C31.74 74.0335 32.02 74.5872 32.32 75.1409C32.92 74.0434 33.48 72.8965 34.01 71.7101H34.17H34.36C34.4697 71.7217 34.5803 71.7217 34.69 71.7101L35.12 75.2101C35.17 75.6451 35.2 75.9022 35.22 75.9912C35.2531 76.2341 35.2998 76.4751 35.36 76.7129H34.87Z" fill="#393C4C"/>
<path d="M42.8414 73.2418C42.8181 73.2419 42.7951 73.2358 42.775 73.224C42.7548 73.2123 42.7383 73.1955 42.727 73.1753C42.7158 73.155 42.7102 73.1322 42.711 73.1091C42.7118 73.086 42.7188 73.0636 42.7314 73.0441L44.1114 71.0667C44.1235 71.0503 44.1393 71.037 44.1575 71.0279C44.1758 71.0187 44.1959 71.0139 44.2164 71.0139C44.2369 71.0139 44.2571 71.0187 44.2753 71.0279C44.2936 71.037 44.3094 71.0503 44.3214 71.0667L45.7014 73.0441C45.714 73.0636 45.721 73.086 45.7218 73.1091C45.7226 73.1322 45.717 73.155 45.7058 73.1753C45.6945 73.1955 45.678 73.2123 45.6578 73.224C45.6377 73.2358 45.6148 73.2419 45.5914 73.2418H42.8414Z" fill="#393C4C"/>
<path d="M19.1793 71.0665H21.9392C21.9633 71.0643 21.9875 71.0694 22.0086 71.081C22.0297 71.0926 22.0468 71.1103 22.0576 71.1316C22.0684 71.153 22.0724 71.1771 22.0691 71.2007C22.0659 71.2244 22.0554 71.2465 22.0392 71.2643L20.6693 73.1823C20.6572 73.1987 20.6414 73.212 20.6231 73.2211C20.6049 73.2303 20.5847 73.2351 20.5642 73.2351C20.5438 73.2351 20.5236 73.2303 20.5054 73.2211C20.4871 73.212 20.4713 73.1987 20.4593 73.1823L19.0793 71.2643C19.0671 71.2455 19.06 71.224 19.0588 71.2017C19.0576 71.1794 19.0622 71.1572 19.0723 71.1373C19.0824 71.1173 19.0976 71.1003 19.1163 71.0879C19.1351 71.0755 19.1568 71.0681 19.1793 71.0665Z" fill="#393C4C"/>
<path d="M39.7188 14H24.7887C21.0621 14.0104 17.491 15.478 14.8549 18.0824C12.2189 20.6868 10.7319 24.2165 10.7188 27.901V68.1903C10.7188 68.6451 10.7188 69.0999 10.7888 69.5547V72.7481C11.0288 80.539 20.5388 86.8173 32.2688 86.8173C43.9988 86.8173 53.5088 80.539 53.7388 72.7481V27.901C53.7257 24.2251 52.2456 20.7028 49.6203 18.0998C46.995 15.4968 43.4367 14.0234 39.7188 14Z" stroke="#393C4C" stroke-width="2" stroke-linecap="round" stroke-linejoin="round"/>
<path d="M49.7212 27.8416C49.7226 26.8579 49.5277 25.8836 49.1479 24.9744C48.768 24.0652 48.2106 23.239 47.5076 22.5429C46.8045 21.8469 45.9696 21.2947 45.0505 20.918C44.1314 20.5412 43.1462 20.3473 42.1512 20.3473H22.3612C20.3509 20.3473 18.4229 21.1369 17.0014 22.5423C15.5798 23.9478 14.7812 25.854 14.7812 27.8416V66.2128C14.7812 66.2128 14.7812 66.282 14.7812 66.3215C14.7812 66.3611 14.7812 66.3809 14.7812 66.4105C14.7812 75.1901 22.6012 82.3087 32.2512 82.3087C41.9012 82.3087 49.7212 75.1901 49.7212 66.4105V27.8515V27.8416Z" stroke="#393C4C" stroke-width="2" stroke-linecap="round" stroke-linejoin="round"/>
<path d="M14.7812 26.2593H49.7213" stroke="#393C4C" stroke-width="2" stroke-linecap="round" stroke-linejoin="round"/>
<path d="M14.7812 63.0291H49.7213" stroke="#393C4C" stroke-width="2" stroke-linecap="round" stroke-linejoin="round"/>
<path d="M14.7812 68.2391H49.7213" stroke="#393C4C" stroke-width="2" stroke-linecap="round" stroke-linejoin="round"/>
<path d="M21.3203 77.7799L27.5503 68.2391" stroke="#393C4C" stroke-width="2" stroke-linecap="round" stroke-linejoin="round"/>
<path d="M43.1792 77.7799L36.9492 68.2391" stroke="#393C4C" stroke-width="2" stroke-linecap="round" stroke-linejoin="round"/>
<path d="M41.4597 14.3066C40.0997 16.4026 36.4597 17.8955 32.2497 17.8955C28.0397 17.8955 24.1897 16.3136 22.9297 14.1188" stroke="#393C4C" stroke-width="2" stroke-linecap="round" stroke-linejoin="round"/>
<path d="M60.6211 37.5403H88.6711" stroke="#393C4C" stroke-width="2" stroke-linecap="round" stroke-linejoin="round"/>
<path d="M60.1602 46.3496V29.8781H89.0502V85.6106H70.6902" stroke="#393C4C" stroke-width="2" stroke-linecap="round" stroke-linejoin="round"/>
<path d="M58.4805 47.4572L61.9904 45.1536H67.1804L70.6904 47.4572V85.6108H58.4805V47.4572Z" stroke="#393C4C" stroke-width="2" stroke-linecap="round" stroke-linejoin="round"/>
<path d="M65.4414 48.4854V45.1536H63.7414V48.4854H65.4414Z" fill="#393C4C"/>
<path d="M64.5883 50.7788C64.7388 50.7654 64.8822 50.709 65.0009 50.6166C65.1197 50.5241 65.2087 50.3995 65.2571 50.258C65.3056 50.1164 65.3114 49.964 65.2738 49.8192C65.2363 49.6745 65.157 49.5436 65.0457 49.4426C64.9343 49.3416 64.7956 49.2747 64.6465 49.2501C64.4974 49.2255 64.3443 49.2444 64.2058 49.3042C64.0673 49.3641 63.9494 49.4624 63.8664 49.5873C63.7834 49.7122 63.7389 49.8582 63.7383 50.0077C63.7487 50.221 63.8438 50.4216 64.0029 50.566C64.1621 50.7104 64.3724 50.7869 64.5883 50.7788Z" fill="#393C4C"/>
<path d="M58.4805 54.239H70.6905" stroke="#393C4C" stroke-width="2" stroke-linecap="round" stroke-linejoin="round"/>
<path d="M58.4805 78.1753H70.6905" stroke="#393C4C" stroke-width="2" stroke-linecap="round" stroke-linejoin="round"/>
<path d="M61.3594 77.958V81.6755L62.2394 82.4961V85.5907" stroke="#393C4C" stroke-width="1.5" stroke-linejoin="round"/>
<path d="M67.8097 77.958V81.6755L66.9297 82.4961V85.5907" stroke="#393C4C" stroke-width="1.5" stroke-linejoin="round"/>
<path d="M23.9102 51.8572H34.4802" stroke="#393C4C" stroke-width="2" stroke-miterlimit="10" stroke-linecap="round"/>
<path d="M30.6391 45.4497H23.7891L25.6991 43.4723H29.0291L30.6391 45.4497ZM24.0591 37.6093L24.4491 32.4284L26.0491 34.4058L25.8491 37.105L24.6491 38.3706L24.0591 37.6093ZM31.6691 32.033L29.7491 34.0104H26.4291L24.8191 32.033H31.6691ZM29.6691 37.7477L30.4791 38.7364L29.4791 39.7251H25.7191L24.9191 38.7364L25.8691 37.7477H29.6691ZM31.3591 39.8734L30.9691 45.0641L29.3691 43.0867L29.5691 40.3776L30.7691 39.1319L31.3591 39.8734Z" fill="#393C4C"/>
<path d="M32.7617 45.45L32.9117 43.4725H34.6718L34.5218 45.45H32.7617Z" fill="#393C4C"/>
<path d="M38.4381 40.4073L38.2381 43.1065L36.3281 45.0839L36.7081 39.8932L37.4381 39.1418L38.4381 40.4073ZM43.4881 45.4893H36.6381L38.5481 43.5118H41.8781L43.4881 45.4893ZM36.8981 37.6488L37.2981 32.468L38.9181 34.4454L38.7081 37.1446L37.4981 38.4101L36.8981 37.6488ZM44.5181 32.0725L42.6081 34.0499H39.2781L37.6681 32.0725H44.5181ZM42.5181 37.7872L43.3281 38.7759L42.3281 39.7646H38.5581L37.7581 38.7759L38.7081 37.7872H42.5181ZM44.1781 39.9129L43.7981 45.1036L42.1881 43.1262L42.3881 40.4172L43.5881 39.1714L44.1781 39.9129ZM42.6381 37.1544L42.8481 34.4157L44.7681 32.4383L44.3681 37.6389L43.6381 38.4101L42.6381 37.1544Z" fill="#393C4C"/>
</svg>

<svg width="100" height="100" fill="none" xmlns="http://www.w3.org/2000/svg"><path d="M74.648 56.088a8.73 8.73 0 00-4 .989v14.969a8.627 8.627 0 007.46.197 8.54 8.54 0 003.046-2.292 8.418 8.418 0 001.73-3.376 8.36 8.36 0 00.065-3.785 8.41 8.41 0 00-1.611-3.433 8.53 8.53 0 00-2.965-2.394 8.629 8.629 0 00-3.725-.875z" fill="#F91A2B"/><path d="M34.87 76.713h-.81v-.504c0-.129 0-.307-.05-.524l-.24-2.334c-.3.574-.59 1.127-.86 1.691-.27.564-.53 1.068-.82 1.67h-.3a69.2 69.2 0 00-.85-1.72c-.29-.563-.56-1.067-.8-1.522l-.18 1.523c0 .267-.07.563-.1.9-.03.335 0 .602 0 .82-.1-.007-.2-.007-.3 0h-.31l.24-1.542.48-3.46c.106.01.214.01.32 0h.32c.27.582.55 1.156.84 1.74.29.583.57 1.136.87 1.69.6-1.098 1.16-2.245 1.69-3.43h.35c.11.01.22.01.33 0l.43 3.5c.05.434.08.691.1.78.033.243.08.484.14.722h-.49zm7.971-3.471a.13.13 0 01-.13-.133c0-.023.008-.045.02-.065l1.38-1.977a.129.129 0 01.105-.053.13.13 0 01.105.053l1.38 1.977a.128.128 0 01-.043.18.13.13 0 01-.067.018h-2.75zM19.18 71.067h2.76a.121.121 0 01.118.065.117.117 0 01-.019.132l-1.37 1.918a.128.128 0 01-.105.053.13.13 0 01-.105-.053l-1.38-1.918a.127.127 0 01.037-.176.131.131 0 01.063-.021z" fill="#393C4C"/><path d="M39.719 14h-14.93a14.192 14.192 0 00-9.934 4.082 13.871 13.871 0 00-4.136 9.819v40.29c0 .454 0 .909.07 1.364v3.193c.24 7.791 9.75 14.07 21.48 14.07s21.24-6.279 21.47-14.07V27.901A13.871 13.871 0 0049.62 18.1a14.191 14.191 0 00-9.9-4.1z" stroke="#393C4C" stroke-width="2" stroke-linecap="round" stroke-linejoin="round"/><path d="M49.721 27.842a7.41 7.41 0 00-.573-2.868 7.482 7.482 0 00-1.64-2.431 7.576 7.576 0 00-2.458-1.625 7.644 7.644 0 00-2.899-.57h-19.79c-2.01 0-3.938.789-5.36 2.194a7.452 7.452 0 00-2.22 5.3V66.41c0 8.78 7.82 15.899 17.47 15.899 9.65 0 17.47-7.119 17.47-15.898V27.84zm-34.94-1.582h34.94m-34.94 36.77h34.94m-34.94 5.21h34.94M21.32 77.78l6.23-9.54m15.63 9.54l-6.23-9.54m4.51-53.933c-1.36 2.096-5 3.588-9.21 3.588-4.21 0-8.06-1.581-9.32-3.776M60.621 37.54h28.05M60.16 46.35V29.878h28.89v55.733H70.69" stroke="#393C4C" stroke-width="2" stroke-linecap="round" stroke-linejoin="round"/><path d="M58.48 47.457l3.51-2.303h5.19l3.51 2.303v38.154H58.48V47.457z" stroke="#393C4C" stroke-width="2" stroke-linecap="round" stroke-linejoin="round"/><path d="M65.441 48.485v-3.331h-1.7v3.331h1.7zm-.853 2.294a.785.785 0 00.67-.521.762.762 0 00-.212-.815.784.784 0 00-1.18.144.765.765 0 00-.128.42c.01.214.106.415.265.559.16.144.37.22.585.213z" fill="#393C4C"/><path d="M58.48 54.239h12.21M58.48 78.175h12.21" stroke="#393C4C" stroke-width="2" stroke-linecap="round" stroke-linejoin="round"/><path d="M61.36 77.958v3.718l.88.82v3.095m5.57-7.633v3.718l-.88.82v3.095" stroke="#393C4C" stroke-width="1.5" stroke-linejoin="round"/><path d="M23.91 51.857h10.57" stroke="#393C4C" stroke-width="2" stroke-miterlimit="10" stroke-linecap="round"/><path d="M30.64 45.45h-6.85l1.91-1.978h3.33l1.61 1.978zm-6.58-7.84l.39-5.182 1.6 1.978-.2 2.699-1.2 1.266-.59-.762zm7.61-5.577l-1.92 1.977h-3.32l-1.61-1.977h6.85zm-2 5.715l.81.988-1 .99h-3.76l-.8-.99.95-.988h3.8zm1.69 2.125l-.39 5.191-1.6-1.977.2-2.71 1.2-1.245.59.741zm1.402 5.577l.15-1.978h1.76l-.15 1.978h-1.76zm5.676-5.043l-.2 2.7-1.91 1.977.38-5.19.73-.752 1 1.265zm5.05 5.082h-6.85l1.91-1.977h3.33l1.61 1.977zm-6.59-7.84l.4-5.181 1.62 1.977-.21 2.7-1.21 1.265-.6-.761zm7.62-5.577l-1.91 1.978h-3.33l-1.61-1.977h6.85zm-2 5.715l.81.989-1 .989h-3.77l-.8-.99.95-.988h3.81zm1.66 2.126l-.38 5.19-1.61-1.977.2-2.709 1.2-1.246.59.742zm-1.54-2.759l.21-2.738 1.92-1.978-.4 5.2-.73.772-1-1.256z" fill="#393C4C"/></svg>
